X:1
T:The World Turned Upside Down
M:6/8
L:1/8
K:C
 c/2B/2| cGF EDE| CEG c2c/2-B/2| cGF EDE| CEG c2 c/2c/2| cec dcB| Adc B2 G|\
 GAB cGF| EDC G3| D3/2 E/2 D F3| ECE G2 G| AcB cGE| AFG C2||
